packages/icons/assets/Fullscreen.svg

<svg xmlns="http://www.w3.org/2000/svg" viewBox="0 0 16 16"><path fill="#414141" d="M16 .0022v4.49829l-1.00006-.00012-.00006-2.79309-4.6463 4.64624-.7071-.707L14.293 1h-2.7934V0h4.49817v.00208zM4.50049 1l-.00006-1H.00226l.00006.00208L0 .0022V.707l.00006 3.79349 1-.00012.00006-2.79309 4.64636 4.64624.7071-.707L1.707 1zm10.49939 13.29272-4.6463-4.64624-.7071.707L14.293 15h-2.7934v1h4.49817v-.0022H16v-4.49829h-1.00006zm-9.3534-4.64624-4.64636 4.64624-.00006-2.79321h-1L0 15.293v.70483h.00232L.00226 16h4.49817l.00006-1H1.707l4.64655-4.64648z"/></svg>

<svg xmlns="http://www.w3.org/2000/svg" viewBox="0 0 16 16"><path fill="#414141" d="M16 0v4.5h-1V1.7l-4.65 4.65-.7-.7L14.29 1H11.5V0H16zM4.5 1V0H0v4.5h1V1.7l4.65 4.65.7-.7L1.71 1zM15 14.3l-4.65-4.65-.7.7L14.29 15H11.5v1H16v-4.5h-1zM5.65 9.64 1 14.29V11.5H0V16h4.5v-1H1.7l4.65-4.65z"/></svg>
